SVG-Logos/Observability/Grafana/grafana-labs-mail-icon.svg

<svg xmlns="http://www.w3.org/2000/svg" width="98" height="98" viewBox="0 0 98 98" fill="none"><path d="M38.6975 21.129c-8.4136-5.8659-19.1789-7.1821-21.0724-5.0767-1.5361 1.7055 4.2664 11.0486 3.3262 13.779C20.0138 32.5617 11.7829 30.7953 10.8825 34.2672 10.4561 35.9171 16.7696 39.8975 16.6002 42.2015 16.4307 44.5056 11.5552 43.8541 11.1976 46.8361c-.241 2.0047 4.2082 2.447 4.0387 4.8357C15.0668 54.0606 11.8544 53.6236 11.9948 55.9383 12.1086 57.8159 15.6203 56.5791 16.5604 59.7359c.9375 3.1568 22.1398-38.6069 22.1398-38.6069H38.6975z" fill="#ef6122"/><path d="M20.7815 77.0133C30.7788 87.9826 59.489 95.4137 78.2469 80.909 81.3295 77.837 101.369 53.809 83.1966 29.2063 69.203 10.2657 27.058 16.9208 20.0612 37.3975 14.6693 53.176 14.6401 70.2734 20.7842 77.0133H20.7815z" fill="#fac20c"/><path d="M74.8174 95.7554H25.4399" stroke="#000" stroke-width="2.66591" stroke-miterlimit="10" stroke-linecap="round"/><path d="M16.653 54.095c-1.589 12.9343 3.464 27.1053-4.6689 27.9872C3.85114 82.9641 2.70973 73.4381 6.44647 72.3205 10.1832 71.203 11.0545 74.4524 10.4136 76.2877 9.85483 77.4821 11.1207 77.9932 12.323 76.6796 13.6578 75.2204 13.5174 70.5674 9.60324 69.2485 5.69171 67.9297.260051 69.2909.00581488 77.0133-.211345 83.5467 5.66522 90.0694 15.7473 88.0196 25.8294 85.9699 25.6016 83.5414 33.9623 88.4884 36.4676 89.9714 16.653 54.095 16.653 54.095z" fill="#fac20c"/><path d="M78.247 80.9089C68.6443 88.3612 70.2015 95.1038 63.3212 95.5514 56.4409 95.9989 57.4023 88.6155 52.2805 88.9518 47.1613 89.2881 46.2 95.6626 38.5199 95.5514 30.8399 95.4401 36.6793 86.2558 26.6105 85.6308 21.1153 85.2892 56.7587 77.6542 56.7587 77.6542l21.4857 3.2547H78.247z" fill="#fac20c"/><path opacity=".5" d="M78.247 80.9089C68.6443 88.3612 70.2015 95.1038 63.3212 95.5514 56.4409 95.9989 57.4023 88.6155 52.2805 88.9518 47.1613 89.2881 46.2 95.6626 38.5199 95.5514 30.8399 95.4401 36.6793 86.2558 26.6105 85.6308 21.1153 85.2892 56.7587 77.6542 56.7587 77.6542l21.4857 3.2547H78.247z" fill="url(#paint0_linear_32007_11232)"/><path d="M28.1201 26.7169c14.3326-10.1535 31.0142-4.608 33.1461-3.1991C63.3981 24.9267 66.4198 23.253 64.7222 19.0236 59.0337 4.86055 43.7186-.827996 40.4055.0962596 37.5057.906638 41.5443 14.9903 38.6577 17.8425 36.3404 20.1306 34.762 18.3827 30.8214 17.0613c-3.5594-1.1944-2.7013 9.6556-2.7013 9.6556z" fill="#ef6122"/><path d="M68.0531 59.6946c-3.584 2.1752-7.6608 1.4542-10.4803-2.2838" stroke="#c15833" stroke-width="1.80879" stroke-miterlimit="10" stroke-linecap="round"/><path opacity=".3" d="M79.2401 57.7443C80.0416 57.7443 80.6913 57.0946 80.6913 56.2931 80.6913 55.4915 80.0416 54.8418 79.2401 54.8418S77.7888 55.4915 77.7888 56.2931C77.7888 57.0946 78.4386 57.7443 79.2401 57.7443z" fill="#e83878"/><path opacity=".3" d="M51.6793 57.6834C52.4808 57.6834 53.1306 57.0337 53.1306 56.2321 53.1306 55.4306 52.4808 54.7809 51.6793 54.7809 50.8778 54.7809 50.228 55.4306 50.228 56.2321 50.228 57.0337 50.8778 57.6834 51.6793 57.6834z" fill="#e83878"/><path d="M49.9394 53.2423H89.2083C93.9267 53.2423 97.7517 49.4173 97.7517 44.6989V44.6963c0-4.7184-3.825-8.5434-8.54340000000001-8.5434H49.9394c-4.7184.0-8.5434 3.825-8.5434 8.5434V44.6989c0 4.7184 3.825 8.5434 8.5434 8.5434z" fill="#2d2dea"/><path d="M58.8748 51.2349H88.9144C92.5242 51.2349 95.4504 48.3086 95.4504 44.6989c0-3.6098-2.92620000000001-6.536-6.536-6.536H58.8748c-3.6097.0-6.536 2.9262-6.536 6.536.0 3.6097 2.9263 6.536 6.536 6.536z" fill="#02021c"/><path d="M81.0651 51.1977C83.1201 51.1977 84.786 49.5318 84.786 47.4768 84.786 45.4219 83.1201 43.756 81.0651 43.756 79.0101 43.756 77.3442 45.4219 77.3442 47.4768c0 2.055 1.66589999999999 3.7209 3.7209 3.7209z" fill="#2a93f2"/><path d="M70.3791 51.2004C72.434 51.2004 74.0999 49.5345 74.0999 47.4795 74.0999 45.4246 72.434 43.7587 70.3791 43.7587 68.3241 43.7587 66.6582 45.4246 66.6582 47.4795c0 2.055 1.66590000000001 3.7209 3.7209 3.7209z" fill="#2a93f2"/><path d="M64.7408 51.1766H86.7402V48.8779H64.7408v2.2987z" fill="#02021c"/><path d="M85.0819 72.0874C88.6253 72.4767 89.2715 76.7987 88.2307 79.5079 87.0151 82.6674 84.4569 83.8088 80.887 83.491" fill="#f99f10"/><path d="M71.0008 78.3506l13.9221-7.3252L84.9335 70.9672C85.193 69.5874 84.282 68.258 82.9022 67.9984L80.4446 67.5376l-1.6631-.3125-12.9581-2.4285L64.4939 64.5477 61.7106 64.026C60.3308 63.7664 59.0014 64.6775 58.7418 66.0572L58.7339 66.1022 69.0596 77.9851C69.5389 78.5307 70.3573 78.6843 71.0008 78.348V78.3506z" fill="#fff" stroke="#aeaeb5" stroke-width=".888637"/><path d="M58.7341 66.1049 56.2739 79.2325C56.2712 79.2484 56.2712 79.2642 56.2686 79.2801L65.7548 74.1848 58.7341 66.1049z" fill="#f1f2f2" stroke="#aeaeb5" stroke-width=".888637"/><path d="M82.4681 84.1398 84.8384 71.2423 75.4792 75.999 82.4628 84.1769S82.1724 83.8369 82.4707 84.1425L82.4681 84.1398z" fill="#f1f2f2" stroke="#aeaeb5" stroke-width=".888637"/><path d="M75.4764 75.9963l-4.4756 2.3543C70.3546 78.6843 69.5389 78.5333 69.0596 77.9878L65.7572 74.1875 56.271 79.2828C56.0406 80.6467 56.9436 81.947 58.3102 82.2039L79.5018 86.1737C80.871 86.4306 82.1872 85.5381 82.4626 84.1769L75.4791 75.9989 75.4764 75.9963z" fill="#dedede" stroke="#aeaeb5" stroke-width=".888637"/><path d="M54.1266 69C59.0471 69.8501 62.3125 73.1102 61.7113 76.7754 61.1128 80.4406 56.5445 80.4433 52 79.67" fill="#f99f10"/><path d="M85.308 72.1742C83.0927 71.9091 80.7102 73.5967 80.547 76.5322 80.3838 79.4651 82.6929 80.787 83.6626 80.8708" fill="#f99f10"/><defs><linearGradient id="paint0_linear_32007_11232" x1="52.1428" y1="95.0323" x2="52.1428" y2="85.2018" gradientUnits="userSpaceOnUse"><stop stop-color="#f49314"/><stop offset=".59" stop-color="#f49314" stop-opacity=".4"/><stop offset="1" stop-color="#f49314" stop-opacity="0"/></linearGradient></defs></svg>

<svg xmlns="http://www.w3.org/2000/svg" fill="none" viewBox="0 0 98 98"><path fill="#ef6122" d="M38.697 21.129c-8.413-5.866-19.178-7.182-21.072-5.077-1.536 1.706 4.266 11.049 3.326 13.78-.937 2.73-9.168.963-10.069 4.435-.426 1.65 5.888 5.63 5.718 7.934-.17 2.305-5.045 1.653-5.402 4.635-.241 2.005 4.208 2.447 4.038 4.836-.17 2.389-3.382 1.952-3.241 4.266.114 1.878 3.625.641 4.565 3.798.938 3.157 22.14-38.607 22.14-38.607h-.003z"/><path fill="#fac20c" d="M20.782 77.013c9.997 10.97 38.707 18.4 57.465 3.896 3.082-3.072 23.122-27.1 4.95-51.703-13.994-18.94-56.139-12.285-63.136 8.192-5.392 15.778-5.42 32.875.723 39.615h-.002z"/><path stroke="#000" stroke-linecap="round" stroke-miterlimit="10" stroke-width="2.666" d="M74.817 95.755H25.44"/><path fill="#fac20c" d="M16.653 54.095c-1.589 12.934 3.464 27.105-4.669 27.987-8.133.882-9.274-8.644-5.538-9.761 3.737-1.118 4.609 2.131 3.968 3.967-.56 1.194.707 1.705 1.909.392 1.335-1.46 1.194-6.113-2.72-7.431-3.911-1.32-9.343.042-9.597 7.764-.217 6.534 5.66 13.056 15.741 11.007 10.082-2.05 9.855-4.479 18.215.468 2.506 1.483-17.309-34.393-17.309-34.393z"/><path fill="#fac20c" d="M78.247 80.909c-9.603 7.452-8.046 14.195-14.926 14.642-6.88.448-5.919-6.936-11.04-6.6-5.12.337-6.081 6.712-13.761 6.6-7.68-.11-1.84-9.295-11.91-9.92-5.495-.342 30.149-7.977 30.149-7.977l21.485 3.255h.003z"/><path fill="url(#a)" d="M78.247 80.909c-9.603 7.452-8.046 14.195-14.926 14.642-6.88.448-5.919-6.936-11.04-6.6-5.12.337-6.081 6.712-13.761 6.6-7.68-.11-1.84-9.295-11.91-9.92-5.495-.342 30.149-7.977 30.149-7.977l21.485 3.255h.003z" opacity=".5"/><path fill="#ef6122" d="M28.12 26.717c14.333-10.154 31.014-4.608 33.146-3.2 2.132 1.41 5.154-.264 3.456-4.493C59.034 4.86 43.72-.828 40.406.096c-2.9.81 1.138 14.894-1.748 17.747-2.318 2.288-3.896.54-7.837-.782-3.559-1.194-2.7 9.656-2.7 9.656z"/><path stroke="#c15833" stroke-linecap="round" stroke-miterlimit="10" stroke-width="1.809" d="M68.053 59.695c-3.584 2.175-7.66 1.454-10.48-2.284"/><path fill="#e83878" d="M79.24 57.744a1.451 1.451 0 1 0 0-2.902 1.451 1.451 0 0 0 0 2.902zM51.68 57.683a1.451 1.451 0 1 0 0-2.902 1.451 1.451 0 0 0 0 2.902z" opacity=".3"/><path fill="#2d2dea" d="M49.94 53.242h39.268a8.543 8.543 0 0 0 8.544-8.543v-.003a8.543 8.543 0 0 0-8.544-8.543H49.94a8.543 8.543 0 0 0-8.543 8.543v.003a8.543 8.543 0 0 0 8.543 8.543z"/><path fill="#02021c" d="M58.875 51.235h30.04a6.536 6.536 0 1 0 0-13.072h-30.04a6.536 6.536 0 1 0 0 13.072z"/><path fill="#2a93f2" d="M81.065 51.198a3.72 3.72 0 1 0 0-7.442 3.72 3.72 0 0 0 0 7.442zM70.38 51.2a3.72 3.72 0 1 0-.001-7.441 3.72 3.72 0 0 0 0 7.441z"/><path fill="#02021c" d="M64.74 51.177h22v-2.3h-22v2.3z"/><path fill="#f99f10" d="M85.082 72.087c3.543.39 4.19 4.712 3.149 7.42-1.216 3.16-3.774 4.302-7.344 3.984"/><path fill="#fff" stroke="#aeaeb5" stroke-width=".889" d="m71 78.35 13.923-7.325.01-.058a2.545 2.545 0 0 0-2.03-2.969l-2.458-.46-1.663-.313-12.959-2.428-1.33-.25-2.782-.521a2.545 2.545 0 0 0-2.97 2.031l-.007.045L69.06 77.985c.479.546 1.297.7 1.94.363v.003z"/><path fill="#f1f2f2" stroke="#aeaeb5" stroke-width=".889" d="m58.734 66.105-2.46 13.127c-.003.016-.003.032-.005.048l9.486-5.095-7.02-8.08zM82.468 84.14l2.37-12.898L75.48 76l6.984 8.178s-.29-.34.008-.035l-.003-.002z"/><path fill="#dedede" stroke="#aeaeb5" stroke-width=".889" d="m75.476 75.996-4.475 2.355a1.62 1.62 0 0 1-1.941-.363l-3.303-3.8-9.486 5.095a2.541 2.541 0 0 0 2.04 2.92l21.19 3.97a2.543 2.543 0 0 0 2.962-1.996l-6.984-8.178-.003-.003z"/><path fill="#f99f10" d="M54.127 69c4.92.85 8.185 4.11 7.584 7.775-.598 3.666-5.166 3.668-9.711 2.895M85.308 72.174c-2.215-.265-4.598 1.423-4.761 4.358-.163 2.933 2.146 4.255 3.116 4.339"/><defs><linearGradient id="a" x1="52.143" x2="52.143" y1="95.032" y2="85.202" gradientUnits="userSpaceOnUse"><stop stop-color="#f49314"/><stop offset=".59" stop-color="#f49314" stop-opacity=".4"/><stop offset="1" stop-color="#f49314" stop-opacity="0"/></linearGradient></defs></svg>
